logo/skylight.svg

<svg viewBox="0 0 256 289" xmlns="http://www.w3.org/2000/svg"><path fill="#BAC4C5" d="M239.348 64.287L127.99 0 16.65 64.287C6.34 70.227-.01 81.227-.01 93.12v109.345c0 11.89 6.348 22.89 16.652 28.84l89.17 51.48c13.72 7.92 30.62 7.92 44.342 0l89.17-51.49c10.3-5.95 16.65-16.95 16.65-28.85V93.1c0-11.9-6.35-22.9-16.66-28.85v0Zm-17.28 122.84c0 8.8-4.65 16.94-12.2 21.34l-63.81 37.21c-10.98 6.4-24.55 6.4-35.52 0l-63.81-37.22c-7.55-4.41-12.198-12.54-12.198-21.35v-80.92c0-8.81 4.65-16.95 12.198-21.35l81.56-47.58 81.564 47.57c7.54 4.4 12.19 12.53 12.19 21.34v80.91 0Z"/><g transform="translate(68 84)"><path fill="#ED1A3B" d="M92.4 26.04l-.66.45 -30.13 31.96 -.41.59 .15.06 30.984.04 .04-.11 29.38-27.966L92.36 26"/><path fill="#C2315D" d="M92.4 92.083l-.19.04 -30.88-32.69 -.13-.38h31.18l29.38 27.62 -29.39 5.4"/><path fill="#94407E" d="M61.22 59.062L92.4 92.083l-1.44 25.67L61.21 88.39l-.08-.28 -.07-28.67 .14-.4"/><path fill="#577F9F" d="M28.206 90.24l-.04-.31L60.83 59.28l.39-.24 -.01 29.33 -29.53 29.363 -3.49-27.52"/><path fill="#00AEC5" d="M61.22 59.06L28.19 90.24 .67 86.59 31.87 59.05l.17-.15 28.79-.03 .37.16"/><path fill="#93C483" d="M61.22 59.06l-.4-.65 -32.125-30.5 -.51-.04L.67 31.77l31.197 27.27H61.2"/><path fill="#FCDE11" d="M28.2 27.883L61.22 59.064l.14-.78v-28l-.16-.57L31.63.36 28.18 27.87"/><path fill="#F78E36" d="M61.223 59.06L92.4 26.039 90.633.37 61.21 29.725v29.33"/></g></svg>

<?xml version="1.0" encoding="UTF-8" standalone="no"?>
<svg width="256px" height="289px" viewBox="0 0 256 289" version="1.1" xmlns="http://www.w3.org/2000/svg" xmlns:xlink="http://www.w3.org/1999/xlink" preserveAspectRatio="xMidYMid">
	<g>
		<path d="M239.348,64.287 L128,0 L16.652,64.287 C6.348,70.236 0,81.231 0,93.129 L0,202.474 C0,214.373 6.348,225.367 16.652,231.316 L105.829,282.803 C119.549,290.724 136.452,290.724 150.171,282.803 L239.348,231.316 C249.652,225.367 256,214.373 256,202.474 L256,93.129 C256,81.231 249.652,70.236 239.348,64.287 L239.348,64.287 Z M222.068,187.133 C222.068,195.938 217.418,204.075 209.87,208.477 L146.065,245.693 C135.091,252.094 121.521,252.094 110.547,245.693 L46.741,208.477 C39.193,204.075 34.543,195.938 34.543,187.133 L34.543,106.214 C34.543,97.408 39.193,89.272 46.741,84.869 L128.306,37.295 L209.87,84.869 C217.418,89.272 222.068,97.408 222.068,106.214 L222.068,187.133 L222.068,187.133 Z" fill="#BAC4C5"></path>
		<g transform="translate(68.000000, 84.000000)">
			<path d="M92.404,26.041 L91.75,26.5 L61.625,58.469 L61.223,59.062 L61.375,59.125 L92.359,59.172 L92.404,59.062 L121.793,31.096 L92.404,26.041" fill="#ED1A3B"></path>
			<path d="M92.404,92.083 L92.219,92.125 L61.344,59.437 L61.223,59.062 L92.404,59.062 L121.793,86.682 L92.404,92.083" fill="#C2315D"></path>
			<path d="M61.223,59.062 L92.404,92.083 L90.964,117.76 L61.223,88.397 L61.146,88.125 L61.083,59.458 L61.223,59.062" fill="#94407E"></path>
			<path d="M28.206,90.241 L28.167,89.937 L60.833,59.292 L61.227,59.06 L61.223,88.397 L31.693,117.76 L28.206,90.241" fill="#577F9F"></path>
			<path d="M61.227,59.06 L28.206,90.241 L0.695,86.596 L31.892,59.06 L32.063,58.917 L60.854,58.896 L61.227,59.06" fill="#00AEC5"></path>
			<path d="M61.227,59.064 L60.833,58.417 L28.708,27.917 L28.206,27.883 L0.695,31.79 L31.892,59.064 L61.227,59.064" fill="#93C483"></path>
			<path d="M28.206,27.883 L61.227,59.064 L61.375,58.292 L61.375,30.292 L61.223,29.727 L31.655,0.381 L28.206,27.883" fill="#FCDE11"></path>
			<path d="M61.223,59.062 L92.404,26.041 L90.638,0.381 L61.223,29.727 L61.223,59.062" fill="#F78E36"></path>
		</g>
	</g>
</svg>
